X:188
T:Poor Tom. THO5.188
M:6/8
L:1/8
B:Thompson's Complete Collection of 200 Favourite Dances Vol.5
F:https://www.libraryofdance.org/manuals/1780c-Thompson-Compleat-5.pdf
Z:vmp. Peter Dunk 2024
Q:3/8=100
K:F
fFG ABc|dcB AGF|f>ef def|gaf edc|
f>FG ABc|dcB AGF|agf edc|dfe f3:|
|:afa geg|fdf ecA|fga gfe|fed c3|
dBd cAc|BGB ABc|def gec|BAG F3:|
W:
W:Het contrary sides ./.
W:then on your own sides ./:
W:lead down two Couples, up again & cast off :/.
W:Right & Left at top :/:

